src/assets/images/icon-apple.svg

<svg width="1024" height="1198" viewBox="0 0 1024 1198" fill="none" xmlns="http://www.w3.org/2000/svg">
<path d="M759.38 298.479C666.626 281.799 603.554 346.451 521.93 346.451L495.96 346.451C418.046 346.451 351.264 281.799 258.51 298.479C80.1445 330.555 25.6788 433.34 2.51006 612.143C-18.529 774.51 95.2638 1066.03 247.38 1176.74C328.508 1235.78 399.496 1150.91 495.96 1150.91H521.93C618.394 1150.91 689.382 1235.78 770.51 1176.74C922.626 1066.03 1036.42 774.51 1015.38 612.143C992.211 433.34 937.745 330.555 759.38 298.479Z" fill="#F2F2F2"/>
<path fill-rule="evenodd" clip-rule="evenodd" d="M486.433 312.693C612.215 306.709 712.347 203.383 712.347 76.7962C712.347 61.7569 710.933 47.0459 708.232 32.7875C582.45 38.7718 482.318 142.097 482.318 268.684C482.318 283.724 483.731 298.434 486.433 312.693Z" fill="#F2F2F2"/>
</svg>

<svg width="1024" height="1198" viewBox="0 0 1024 1198" 
    xmlns="http://www.w3.org/2000/svg" fill="none">
    <path d="M759.38 298.479c-92.754-16.68-155.826 47.972-237.45 47.972h-25.97c-77.914 0-144.696-64.652-237.45-47.972-178.365 32.076-232.831 134.861-256 313.664-21.039 162.367 92.754 453.887 244.87 564.597 81.128 59.04 152.116-25.83 248.58-25.83h25.97c96.464 0 167.452 84.87 248.58 25.83 152.116-110.71 265.91-402.23 244.87-564.597-23.169-178.803-77.635-281.588-256-313.664z" fill="#F2F2F2"/>
    <path fill-rule="evenodd" clip-rule="evenodd" d="M486.433 312.693c125.782-5.984 225.914-109.31 225.914-235.897 0-15.039-1.414-29.75-4.115-44.009-125.782 5.984-225.914 109.31-225.914 235.897 0 15.04 1.413 29.75 4.115 44.009z" fill="#F2F2F2"/>
</svg>
